icons/svg/sport/shooting.svg

<?xml version="1.0" encoding="UTF-8" standalone="no"?>
<!-- Created with Inkscape (http://www.inkscape.org/) -->

<svg
   xmlns:dc="http://purl.org/dc/elements/1.1/"
   xmlns:cc="http://creativecommons.org/ns#"
   xmlns:rdf="http://www.w3.org/1999/02/22-rdf-syntax-ns#"
   xmlns:svg="http://www.w3.org/2000/svg"
   xmlns="http://www.w3.org/2000/svg"
   xmlns:sodipodi="http://sodipodi.sourceforge.net/DTD/sodipodi-0.dtd"
   xmlns:inkscape="http://www.inkscape.org/namespaces/inkscape"
   version="1.0"
   width="580"
   height="580"
   id="svg2"
   sodipodi:version="0.32"
   inkscape:version="0.48.0 r9654"
   sodipodi:docname="sport_archery.svg"
   inkscape:output_extension="org.inkscape.output.svg.inkscape">
  <metadata
     id="metadata2975">
    <rdf:RDF>
      <cc:Work
         rdf:about="">
        <dc:format>image/svg+xml</dc:format>
        <dc:type
           rdf:resource="http://purl.org/dc/dcmitype/StillImage" />
        <cc:license
           rdf:resource="http://web.resource.org/cc/PublicDomain" />
        <dc:language>en</dc:language>
        <dc:title></dc:title>
      </cc:Work>
    </rdf:RDF>
  </metadata>
  <sodipodi:namedview
     inkscape:window-height="947"
     inkscape:window-width="1048"
     inkscape:pageshadow="2"
     inkscape:pageopacity="0.0"
     guidetolerance="10.0"
     gridtolerance="10.0"
     objecttolerance="10.0"
     borderopacity="1.0"
     bordercolor="#666666"
     pagecolor="#ffffff"
     id="base"
     inkscape:zoom="0.92167712"
     inkscape:cx="301.5186"
     inkscape:cy="281.19503"
     inkscape:window-x="91"
     inkscape:window-y="25"
     inkscape:current-layer="svg2"
     showgrid="false"
     inkscape:window-maximized="0" />
  <defs
     id="defs4">
    <inkscape:perspective
       sodipodi:type="inkscape:persp3d"
       inkscape:vp_x="0 : 290 : 1"
       inkscape:vp_y="0 : 1000 : 0"
       inkscape:vp_z="580 : 290 : 1"
       inkscape:persp3d-origin="290 : 193.33333 : 1"
       id="perspective2441" />
    <inkscape:perspective
       id="perspective3452"
       inkscape:persp3d-origin="30 : 20 : 1"
       inkscape:vp_z="60 : 30 : 1"
       inkscape:vp_y="0 : 1000 : 0"
       inkscape:vp_x="0 : 30 : 1"
       sodipodi:type="inkscape:persp3d" />
    <symbol
       viewBox="244.5 110 489 219.9"
       id="symbol-university">
      <path
         id="path4460"
         d="M79,43l57,119c0,0,21-96,104-96s124,106,124,106l43-133l82-17L0,17L79,43z" />
      <path
         id="path4462"
         d="M94,176l-21,39"
         stroke-width="20"
         stroke="#000000"
         fill="none" />
      <path
         id="path4464"
         d="M300,19c0,10.5-22.6,19-50.5,19S199,29.5,199,19s22.6-19,50.5-19S300,8.5,300,19z" />
      <path
         id="path4466"
         d="M112,216l-16-38L64,88c0,0-9-8-4-35s16-24,16-24"
         stroke-width="20"
         stroke="#000000"
         ill="none" />
    </symbol>
    <inkscape:perspective
       id="perspective4471"
       inkscape:persp3d-origin="372.04724 : 350.78739 : 1"
       inkscape:vp_z="744.09448 : 526.18109 : 1"
       inkscape:vp_y="0 : 1000 : 0"
       inkscape:vp_x="0 : 526.18109 : 1"
       sodipodi:type="inkscape:persp3d" />
    <inkscape:perspective
       id="perspective4668"
       inkscape:persp3d-origin="6 : 4 : 1"
       inkscape:vp_z="12 : 6 : 1"
       inkscape:vp_y="0 : 1000 : 0"
       inkscape:vp_x="0 : 6 : 1"
       sodipodi:type="inkscape:persp3d" />
  </defs>
  <g
     id="g1327">
    <path
       d="M 66.275,1.768 C 24.94,1.768 1.704,23.139 1.704,66.804 L 1.704,516.927 C 1.704,557.771 22.599,579.156 63.896,579.156 L 515.92,579.156 C 557.227,579.156 578.149,558.841 578.149,516.927 L 578.149,66.804 C 578.149,24.203 557.227,1.768 514.628,1.768 C 514.624,1.768 66.133,1.625 66.275,1.768 z "
       style="fill:#111;stroke:#eee;stroke-width:3.40799999"
       id="path1329" />
  </g>
  <path
     style="font-size:144px;font-style:normal;font-variant:normal;font-weight:normal;font-stretch:normal;text-align:start;line-height:100%;writing-mode:lr-tb;text-anchor:start;fill:#ffffff;fill-opacity:1;stroke:none;font-family:NPSPICT3;-inkscape-font-specification:NPSPICT3"
     d="m 214.71605,127.23752 c 12.02355,3.4e-4 22.28808,-4.24912 30.79365,-12.74843 8.50497,-8.49858 12.75759,-18.96878 12.75794,-31.41065 -3.5e-4,-12.03609 -4.25297,-22.3038 -12.75794,-30.80316 -8.50557,-8.49849 -18.7701,-12.748 -30.79365,-12.74839 -12.02407,3.9e-4 -22.39301,4.2499 -31.1069,12.74839 -8.71433,8.49936 -13.07136,18.76707 -13.07115,30.80316 -2.1e-4,12.44187 4.35682,22.91207 13.07115,31.41065 8.71389,8.49931 19.08283,12.74877 31.1069,12.74843 z m 29.23689,27.37638 c -1.65833,9.12573 -7.4614,13.68844 -17.40925,13.68814 l -103.90484,0 c -12.44166,3e-4 -18.6624,-5.3914 -18.66223,-16.17521 -1.7e-4,-4.56872 1.45537,-8.30244 4.36654,-11.20112 -7.88525,2.89868 -11.82776,8.0816 -11.82763,15.5487 -1.3e-4,10.78376 6.42944,16.17551 19.28873,16.1752 l 108.85995,0 c 13.69419,3.1e-4 20.12377,-6.0116 19.28873,-18.03571 z m -121.31409,13.68814 103.90484,0 c 9.94785,3e-4 15.75092,-4.56241 17.40925,-13.68814 -0.41797,-10.78316 -6.84755,-16.17491 -19.28873,-16.17521 l -108.85995,0 c -0.4178,3e-4 -2.90486,0.82934 -7.4611,2.48702 -2.91117,2.89868 -4.36671,6.6324 -4.36654,11.20112 -1.7e-4,10.78381 6.22057,16.17551 18.66223,16.17521 z m 108.87891,166.09968 0,-1.86055 c -2.5e-4,1.3e-4 -2.5e-4,0.20266 0,0.60754 z m -1.25301,12.43518 0,-1.86056 c -2.6e-4,0.41781 -2.6e-4,0.62664 0,0.62651 z m 19.91528,-206.5377 c 0.40471,0.41802 0.81603,0.83565 1.23401,1.25301 1.65772,3.31636 2.90438,7.05008 3.74003,11.20113 0.41737,4.13904 -0.62046,8.90428 -3.11353,14.29569 -3e-4,0.83564 -0.41797,1.87351 -1.25301,3.11357 -5.79702,8.70806 -14.50482,13.06194 -26.12332,13.06163 l -59.72679,0 0,160.4991 0,0 -34.21093,170.46622 c -1.24057,6.63202 0.006,12.74834 3.74003,18.34897 3.73351,5.6005 8.91643,9.02097 15.5487,10.26141 6.63189,1.24027 12.74822,-0.003 18.34898,-3.73057 5.60037,-3.72746 9.22963,-8.91352 10.88791,-15.5582 l 34.83743,-176.67426 16.17521,0 0,0 34.83748,176.67426 c 1.24,6.64468 4.66048,11.83074 10.26136,15.5582 5.60024,3.72733 11.9254,4.97084 18.97552,3.73057 6.22671,-1.24044 11.30836,-4.66091 15.24491,-10.26141 3.93586,-5.60063 5.07496,-11.71695 3.41732,-18.34897 l -34.21097,-171.70022 0,-143.71635 22.45101,-29.0605 23.21983,-1.54239 18.47168,-24.02565 155.7997,-8.68174 -0.7082,-15.5865 -238.53891,5.12778 c 0,0 -17.22065,6.29771 -23.88214,9.92447 z m -18.66227,194.10252 0,-1.25301 c -2.5e-4,1.3e-4 -2.5e-4,-0.2024 0,-0.60754 z"
     id="flowRoot2391"
     inkscape:connector-curvature="0"
     sodipodi:nodetypes="cscccccccccccccccccccccccccccccccccccccccccccccccccccccccccccccccccccc" />
</svg>

<svg width="580" height="580" viewBox="0 0 580 580" fill="none" xmlns="http://www.w3.org/2000/svg">
<g clip-path="url(#clip0)">
<path d="M66.2751 1.76815C24.9401 1.76815 1.7041 23.1391 1.7041 66.8041V516.927C1.7041 557.771 22.5991 579.156 63.8961 579.156H515.92C557.227 579.156 578.149 558.841 578.149 516.927V66.8041C578.149 24.2031 557.227 1.76815 514.628 1.76815C514.624 1.76815 66.1331 1.62515 66.2751 1.76815Z" fill="#111111" stroke="#EEEEEE" stroke-width="3.408"/>
<path d="M214.716 127.237C226.74 127.238 237.004 122.988 245.51 114.489C254.015 105.99 258.267 95.5203 258.268 83.0784C258.267 71.0423 254.015 60.7746 245.51 52.2752C237.004 43.7768 226.74 39.5272 214.716 39.5269C202.692 39.5272 192.323 43.7768 183.609 52.2752C174.895 60.7746 170.538 71.0423 170.538 83.0784C170.538 95.5203 174.895 105.99 183.609 114.489C192.323 122.988 202.692 127.238 214.716 127.237V127.237ZM243.953 154.614C242.295 163.74 236.492 168.302 226.544 168.302H122.639C110.197 168.302 103.977 162.911 103.977 152.127C103.977 147.558 105.432 143.824 108.343 140.926C100.458 143.824 96.5155 149.007 96.5156 156.474C96.5155 167.258 102.945 172.65 115.804 172.65H224.664C238.358 172.65 244.788 166.638 243.953 154.614V154.614ZM122.639 168.302H226.544C236.492 168.302 242.295 163.74 243.953 154.614C243.535 143.831 237.105 138.439 224.664 138.439H115.804C115.387 138.439 112.899 139.268 108.343 140.926C105.432 143.824 103.977 147.558 103.977 152.127C103.977 162.911 110.197 168.302 122.639 168.302V168.302ZM231.518 334.402V332.541C231.518 332.541 231.518 332.744 231.518 333.149V334.402ZM230.265 346.837V344.976C230.265 345.394 230.265 345.603 230.265 345.603V346.837ZM250.18 140.299C250.585 140.717 250.996 141.135 251.414 141.552C253.072 144.869 254.319 148.602 255.154 152.753C255.572 156.892 254.534 161.658 252.041 167.049C252.04 167.885 251.623 168.923 250.788 170.163C244.991 178.871 236.283 183.225 224.664 183.224H164.938V343.723L130.727 514.19C129.486 520.822 130.733 526.938 134.467 532.538C138.2 538.139 143.383 541.559 150.015 542.8C156.647 544.04 162.764 542.797 168.364 539.069C173.965 535.342 177.594 530.156 179.252 523.511L214.09 346.837H230.265L265.102 523.511C266.342 530.156 269.763 535.342 275.364 539.069C280.964 542.797 287.289 544.04 294.339 542.8C300.566 541.559 305.648 538.139 309.584 532.538C313.52 526.938 314.659 520.822 313.001 514.19L278.79 342.489V198.773L301.241 169.712L324.461 168.17L342.933 144.144L498.733 135.463L498.024 119.876L259.486 125.004C259.486 125.004 242.265 131.302 235.603 134.928L250.18 140.299ZM231.518 334.402V333.149C231.518 333.149 231.518 332.946 231.518 332.541V334.402Z" fill="white"/>
</g>
<defs>
<clipPath id="clip0">
<path d="M0 0H580V580H0V0Z" fill="white"/>
</clipPath>
</defs>
</svg>
